src/_assets/sidebar/tech-comm-proposals-icon.svg

<svg width="24" height="24" viewBox="0 0 24 24" fill="none" xmlns="http://www.w3.org/2000/svg">
<path d="M19.1979 3H4.8C4.32284 3.00074 3.86543 3.19062 3.52803 3.52803C3.19063 3.86543 3.00074 4.32284 3 4.8V19.1979C3 19.6755 3.18957 20.1335 3.52708 20.4714C3.86458 20.8093 4.32242 20.9994 4.8 21H19.1979C19.6751 20.9994 20.1326 20.8096 20.4701 20.4722C20.8075 20.1347 20.9973 19.6772 20.9979 19.2V4.8C20.9971 4.32284 20.8073 3.86543 20.4699 3.52803C20.1325 3.19062 19.6751 3.00074 19.1979 3ZM5.36109 19.4531C5.14403 19.4531 4.93586 19.3669 4.78237 19.2134C4.62888 19.0599 4.54266 18.8518 4.54266 18.6347V5.36109C4.54266 5.14403 4.62888 4.93586 4.78237 4.78237C4.93586 4.62888 5.14403 4.54266 5.36109 4.54266H18.6368C18.8535 4.54321 19.0611 4.62969 19.2142 4.78312C19.3672 4.93654 19.4531 5.1444 19.4531 5.36109V18.6368C19.4526 18.8531 19.3664 19.0604 19.2134 19.2134C19.0604 19.3664 18.8531 19.4526 18.6368 19.4531H5.36109Z" fill="#485F7D"/>
<path d="M12.1589 14.3548C12.0474 14.2532 11.9039 14.1937 11.7532 14.1867C11.1028 14.179 10.4809 13.9185 10.0191 13.4604C9.55727 13.0023 9.29183 12.3825 9.27891 11.7321C9.31758 11.5212 9.3443 11.3011 9.39844 11.0909C9.47649 10.7864 9.56578 10.7653 9.78797 10.9854C10.2049 11.3981 10.6148 11.8172 11.0367 12.2243C11.0732 12.2588 11.1161 12.2857 11.1631 12.3035C11.21 12.3212 11.2601 12.3294 11.3102 12.3277C12.142 12.199 12.1413 12.1948 12.3558 11.3946C12.3584 11.385 12.3617 11.3756 12.3656 11.3665C12.4359 11.2076 12.386 11.0937 12.263 10.9755C11.8622 10.5888 11.4687 10.1951 11.0824 9.7943C11.0072 9.71695 10.9706 9.60164 10.9158 9.50391C11.0191 9.45328 11.1176 9.37945 11.2266 9.35625C11.5797 9.27919 11.9455 9.28171 12.2975 9.36364C12.6495 9.44557 12.9788 9.60485 13.2616 9.82992C13.5443 10.055 13.7734 10.3402 13.9322 10.6648C14.0911 10.9895 14.1756 11.3454 14.1797 11.7068C14.1763 11.799 14.1931 11.8908 14.2289 11.9758C14.2648 12.0609 14.3187 12.137 14.3871 12.199C15.1685 12.9752 15.9488 13.7529 16.7278 14.532C17.3342 13.3983 17.5129 12.0845 17.2312 10.8301C16.9496 9.57574 16.2264 8.46439 15.1936 7.69881C14.1608 6.93322 12.8872 6.56441 11.6052 6.65966C10.3231 6.7549 9.11796 7.30786 8.20962 8.21765C7.30128 9.12744 6.75027 10.3334 6.65708 11.6157C6.56389 12.8979 6.93474 14.1709 7.70198 15.2025C8.46922 16.2341 9.58173 16.9554 10.8366 17.2351C12.0914 17.5147 13.4049 17.3339 14.5376 16.7257C13.7454 15.933 12.9525 15.1427 12.1589 14.3548Z" fill="#485F7D"/>
</svg>

<svg xmlns="http://www.w3.org/2000/svg" width="24" height="24" fill="none"><path fill="#485F7D" d="M19.198 3H4.8A1.803 1.803 0 0 0 3 4.8v14.398A1.8 1.8 0 0 0 4.8 21h14.398a1.803 1.803 0 0 0 1.8-1.8V4.8a1.803 1.803 0 0 0-1.8-1.8M5.36 19.453a.82.82 0 0 1-.818-.818V5.36a.82.82 0 0 1 .818-.818h13.276a.82.82 0 0 1 .816.818v13.276a.82.82 0 0 1-.816.816z"/><path fill="#485F7D" d="M12.159 14.355a.65.65 0 0 0-.406-.168 2.504 2.504 0 0 1-2.474-2.455c.039-.21.065-.43.12-.641.077-.305.167-.326.389-.106.417.413.827.832 1.249 1.24a.38.38 0 0 0 .273.103c.832-.129.831-.133 1.046-.933l.01-.028c.07-.16.02-.273-.103-.392q-.6-.58-1.18-1.18c-.076-.078-.112-.193-.167-.291.103-.05.202-.125.31-.148a2.434 2.434 0 0 1 2.954 2.35.63.63 0 0 0 .207.493 971 971 0 0 1 2.34 2.333 5.359 5.359 0 1 0-2.19 2.194 857 857 0 0 0-2.378-2.371"/></svg>
